assets/features/global-acquiring/sm-phone.svg

<svg width="36" height="36" viewBox="0 0 36 36" fill="none" xmlns="http://www.w3.org/2000/svg">
<path d="M5.26465 1.19922C5.81268 0.970103 6.35732 0.921258 6.96582 1.14355C7.60812 1.37831 8.41618 1.95123 9.38184 3.16016C11.4119 5.70165 11.684 7.01954 11.5137 7.83594C11.4255 8.25824 11.1975 8.66718 10.8037 9.14258C10.599 9.38969 10.3712 9.63079 10.1172 9.8877L9.27441 10.7275C8.51672 11.4295 8.43799 12.3896 8.62305 13.2363C8.80723 14.079 9.27575 14.9829 9.85156 15.8643C11.0144 17.644 12.8271 19.6462 14.5674 21.4131C16.3089 23.1812 18.2632 24.9904 20.0273 26.1465C20.9029 26.7202 21.8052 27.1826 22.6602 27.3633C23.5414 27.5494 24.5054 27.4536 25.2441 26.7148L25.252 26.7061C25.8438 26.1002 26.3041 25.6009 26.7891 25.1963C27.2572 24.8058 27.6693 24.5761 28.0986 24.4854C28.928 24.3102 30.2685 24.5777 32.7979 26.6074L33.2227 26.9482L33.2441 26.9404C34.1881 27.76 34.6581 28.4558 34.8643 29.0215C35.0858 29.6294 35.0355 30.1745 34.8018 30.7256C34.5542 31.3093 34.1012 31.8958 33.5176 32.5098C32.8958 33.1638 32.3312 33.6512 31.6895 34.293L31.6875 34.2949C31.3031 34.6807 30.5228 34.999 29.2188 34.9932C27.9396 34.9874 26.297 34.6668 24.3906 33.9541C20.584 32.5309 15.8621 29.5971 11.127 24.8359C6.39027 20.0732 3.46048 15.3424 2.03809 11.541C1.32571 9.63711 1.00509 8.00216 1 6.73438C0.994872 5.44038 1.3151 4.68097 1.69531 4.31445L1.7041 4.30566L1.71387 4.29688C2.3374 3.66451 2.85255 3.07248 3.48926 2.46875C4.10057 1.88913 4.68424 1.44194 5.26465 1.19922Z" stroke="#9095A1" stroke-width="2"/>
</svg>

<svg xmlns="http://www.w3.org/2000/svg" width="36" height="36" fill="none" viewBox="0 0 36 36"><path stroke="#9095a1" stroke-width="2" d="M5.265 1.2c.548-.23 1.092-.279 1.7-.056.643.234 1.451.807 2.417 2.016 2.03 2.542 2.302 3.86 2.132 4.676-.088.422-.316.831-.71 1.307-.205.247-.433.488-.687.745l-.843.84c-.757.702-.836 1.662-.65 2.508.183.843.652 1.747 1.228 2.628 1.162 1.78 2.975 3.782 4.715 5.55 1.742 1.767 3.696 3.576 5.46 4.732.876.574 1.778 1.037 2.633 1.217.881.186 1.845.09 2.584-.648l.008-.009c.592-.606 1.052-1.105 1.537-1.51.468-.39.88-.62 1.31-.71.829-.176 2.17.092 4.699 2.121l.425.341.021-.008c.944.82 1.414 1.516 1.62 2.081.222.608.172 1.153-.062 1.705-.248.583-.7 1.17-1.284 1.784-.622.654-1.187 1.141-1.829 1.783l-.002.002c-.384.386-1.164.704-2.468.698-1.28-.006-2.922-.326-4.828-1.039-3.807-1.423-8.529-4.357-13.264-9.118C6.39 20.073 3.46 15.342 2.038 11.54 1.326 9.637 1.005 8.002 1 6.734c-.005-1.294.315-2.053.695-2.42l.01-.008.009-.01c.623-.631 1.139-1.224 1.775-1.827.612-.58 1.195-1.027 1.776-1.27Z"/></svg>
